src/assets/icons/read-doc.svg

<svg width="32" height="32" viewBox="0 0 32 32" fill="none" xmlns="http://www.w3.org/2000/svg">
<rect width="32" height="32" rx="4" fill="#4945FF"/>
<path d="M15.7333 8C16.0762 8 16.4113 8.10796 16.6963 8.31022C16.9814 8.51247 17.2035 8.79995 17.3347 9.1363C17.4659 9.47265 17.5002 9.84275 17.4334 10.1998C17.3665 10.5569 17.2014 10.8849 16.959 11.1423C16.7166 11.3997 16.4077 11.575 16.0715 11.646C15.7353 11.7171 15.3867 11.6806 15.07 11.5413C14.7533 11.402 14.4826 11.1661 14.2921 10.8634C14.1017 10.5606 14 10.2048 14 9.84071C14 9.35252 14.1826 8.88433 14.5077 8.53913C14.8327 8.19393 15.2736 8 15.7333 8ZM20 24H12V21.7345H14.9333V15.5044H12.8V13.2389H17.0667V21.7345H20V24Z" fill="#F6F6F9"/>
</svg>

<svg width="32" height="32" fill="none" xmlns="http://www.w3.org/2000/svg"><rect width="32" height="32" rx="4" fill="#4945FF"/><path d="M15.733 8c.343 0 .678.108.963.31.285.202.507.49.639.826.13.337.165.707.098 1.064a1.879 1.879 0 01-.474.942 1.705 1.705 0 01-.887.504 1.64 1.64 0 01-1.002-.105 1.76 1.76 0 01-.778-.678A1.924 1.924 0 0114 9.841a1.9 1.9 0 01.508-1.302c.325-.345.766-.539 1.225-.539zM20 24h-8v-2.265h2.933v-6.23H12.8v-2.266h4.267v8.495H20V24z" fill="#F6F6F9"/></svg>
